X: 1
T: the Autumn Waltz
C: David A Kaynor 1980
%D:1980
R: waltz
Z: 2021 John Chambers <jc:trillian.mit.edu>
S: Dave_Kaynors_Melodies_and_Harmonies.PDF
M: 3/4
L: 1/8
K: A
cd |\
"A"e3 A cd | e3 A cd | ec ea "E7"ed | "A"c4 c2 |\
"Bm"d4 Bc | d3 B cd |[1 "E"ef ec d2 | "A"c4 :|
[2 "E"ef ec BG | "A"A4 |]\
(3efg |\
"A"a4- a2 | "D"a4 gf | "E"f2 e3 d | "A"c4 c2 |\
"Bm"B4 GA | "E"B4 dc | "Bm"B2 {cB}A2 "E"B2 | "A"c4 |]
(3efg |\
"D"a4 {g}ab | a2 g2 f2 | "A"e3 f "E"ed | "A"c4 A2 |\
"Bm"B4 {A}d2 | "D"c4 {A}B2 | "A"A3 A "E"A2 | "A"A4 |]
